!!!OTL: DA LAECHELT NUN WIEDER DER HIMMEL SO BLAU
!!!ARE: Europa, Mitteleuropa, Deutschland
!!!SCT: F0197
!!!YEM: Copyright 1995, estate of Helmut Schaffrath.
**kern
*ICvox
*Ivox
*M3/8
*k[b-]
*F:
{8f
=1
8cc
16cc
16dd
16cc
16dd
=2
8cc
8a
8cc
=3
8b-
8g
8b-
=4
4a}
{8f
=5
8cc
16cc
16dd
16cc
16dd
=6
8cc
8a
8cc
=7
8b-
8b-
8a
=8
4g}
{8g
=9
8cc
8cc
16dd
16bn
=10
8cc
8g
8cc
=11
8ee
8ee
16ff
16dd
=12
4ee}
{8cc
=13
8ff
16ff
16ee
16ff
16dd
=14
8cc
8a
8cc
=15
8b-
8a
8g
=16
4f}
==
!!!AGN: Moral - Lied, Vergaenglichkeit
!!!ONB: ESAC (Essen Associative Code) Database: FINK
!!!AMT: simple triple
!!!AIN: vox
!!!EED: Helmut Schaffrath
!!!EEV: 1.0
*-
